X: 467
%
U:~=!turn!
T: Mrs. Ferguson of Raith's Strathspey
C:
O:Scotland
B:Keith Norman MacDonald : "The Skye collection of the best reels & strathspeys extant" : 1887
Z:Ralph Palmer
R:Strathspey
M:C
L:1/8
K:F
c/B/ | A<FF>A c>dcB | A<Fc>A BGGB | A<FF>A c>dc<A | C<FE<G AFF :| c | fcf>g a<fg>f | c>f b/a/g/f/ e<g-g>a |
f<cf>g {fg}afcA | A,<FE<G A<FF>c | f<cf>g {fg}a<fTg>f | c>f b/a/g/f/ eg-gb | a<fg<e f<dTc>A | BdT(c>B) AFF |]


